X: 3
T: Dressed Ship
R: reel, polka
S: Fiddle Hell Online 2021-10-29
Z: 2022 John Chambers <jc:trillian.mit.edu>
M: 2/4
L: 1/16
K: A
|:\
"A"c2A2 E2c2 | "D"d4      def2 | "A"e2c2    a2c2 | "E"d2B2 B2ed |
"A"c2A2 E2c2 | "D"def2 "A"e2a2 | "D"f2d2 "E"B2e2 | "A"c2A2 A4  :|
|:\
"A"a2e2 c2A2 | "D"fgaf "A"e2c2 | "D"d2f2 "A"e2c2 | "E"d2B2 B2fg |
"A"a2e2 c2A2 | "D"fgaf "A"e2c2 | "D"d2f2 "E"B2e2 | "A"c2A2 A4  :|

